icons/svg/weather-lightning.svg

﻿<?xml version="1.0" encoding="utf-8"?>
<!DOCTYPE svg PUBLIC "-//W3C//DTD SVG 1.1//EN" "http://www.w3.org/Graphics/SVG/1.1/DTD/svg11.dtd">
<svg xmlns="http://www.w3.org/2000/svg" xmlns:xlink="http://www.w3.org/1999/xlink" version="1.1" baseProfile="full" width="24" height="24" viewBox="0 0 24.00 24.00" enable-background="new 0 0 24.00 24.00" xml:space="preserve">
	<path fill="#000000" fill-opacity="1" stroke-width="0.2" stroke-linejoin="round" d="M 6,16C 3.23858,16 1,13.7614 1,11C 1,8.23919 3.23758,6.00099 5.99817,6C 6.97773,3.65105 9.29605,2.00001 12,2.00001C 15.4328,2.00001 18.2441,4.66115 18.4835,8.03304L 19,8C 21.2091,8 23,9.79086 23,12C 23,14.2091 21.2091,16 19,16L 18,16C 17.4477,16 17,15.5523 17,15C 17,14.4477 17.4477,14 18,14L 19,14C 20.1046,14 21,13.1046 21,12C 21,10.8954 20.1046,10 19,10L 17,10L 17,9C 17,6.23858 14.7614,4 12,4C 9.51284,4 7.44982,5.816 7.06456,8.19437C 6.73372,8.06877 6.37489,8 6,8C 4.34315,8 3,9.34315 3,11C 3,12.6569 4.34315,14 6,14L 7,14C 7.55228,14 8,14.4477 8,15C 8,15.5523 7.55228,16 7,16L 6,16 Z M 12,11L 15,11L 13,15L 15,15L 11.25,22L 12,17L 9.5,17L 12,11 Z "/>
</svg>

<svg xmlns="http://www.w3.org/2000/svg" version="1.1" baseProfile="full" width="24" height="24" viewBox="0 0 24.00 24.00" xml:space="preserve"><path fill="#000" fill-opacity="1" stroke-width=".2" stroke-linejoin="round" d="M6 16c-2.76 0-5-2.24-5-5s2.238-5 4.998-5C6.978 3.65 9.296 2 12 2c3.433 0 6.244 2.66 6.483 6.033L19 8c2.21 0 4 1.79 4 4s-1.79 4-4 4h-1c-.552 0-1-.448-1-1s.448-1 1-1h1c1.105 0 2-.895 2-2s-.895-2-2-2h-2V9c0-2.76-2.24-5-5-5-2.487 0-4.55 1.816-4.935 4.194C6.735 8.07 6.375 8 6 8c-1.657 0-3 1.343-3 3s1.343 3 3 3h1c.552 0 1 .448 1 1s-.448 1-1 1H6zm6-5h3l-2 4h2l-3.75 7 .75-5H9.5l2.5-6z"/></svg>
